X: 40857
T: Travelling, The
R: slide
M: 12/8
K: Gmajor
|:~B3 cBc dAF ~G3|~B3 cBc dAF ~G3|
~B3 cBc def ~g3|1 agf def ~g3 gdc:|2 agf def ~g3 gbc'||
|:bag agf gdc BAG|de/f/g agf ~g3 gbc'|
b{c'}bg a2f gdc BAG|1 DFG AGF ~G3 G>fg/a/:|2 DFG AGF ~G3 G2A||

